X: 34
M:2/4
L:1/16
K:D
uA2|AFAd fedB|AFAd dedB|AFAd fedf|afge fedB|
|:(ud"4"e)|fedf eAAd|fedf abab|fedf eAAA|fd"4"ec .d2(de)|
fedf eAAd|fedf abag|fedf eAAA|fdec d2:|


